X:11
T: Graf und Nonne (Die Nonne)
N: Q0155J
O: Mitteleuropa, Deutschland (DDR) , Thueringen, Poermitz
R: Ballade, Standesunterschied, vergebliche Werbung, Liebe, Klage
M: 6/8
L: 1/8
K: F
C | F2Ac2F | FEz3
C | E2Gc2B | A2z3
C | F2GA2B | c2fe2
d | cccB2E | F4z

